images/badge/sharp.svg

<svg viewBox="0 0 36 36" fill="none" xmlns="http://www.w3.org/2000/svg">
<path d="M0 8C0 3.58172 3.58172 0 8 0H28C32.4183 0 36 3.58172 36 8V28C36 32.4183 32.4183 36 28 36H8C3.58172 36 0 32.4183 0 28V8Z" fill="#FC7D04"/>
<path d="M20.3336 18.2222V15.4183L18.6851 14.6614C16.8575 16.8359 16.1744 22.4999 11.7498 22.4999C11.2857 22.4999 10.8405 22.6842 10.5123 23.0124C10.1841 23.3406 9.99976 23.7858 9.99976 24.2499C9.99976 24.7141 10.1841 25.1592 10.5123 25.4874C10.8405 25.8156 11.2857 26 11.7498 26C18.3951 26 23.3331 22.1602 24.8497 19.4266L23.6919 18.2222H20.3336ZM24.4304 14.2104C25.4354 12.3404 24.9123 10.8269 24.3322 10.0931C24.3101 10.0656 24.2824 10.0432 24.251 10.0272C24.2196 10.0112 24.1852 10.002 24.1499 10.0003C24.1147 9.99856 24.0796 10.0043 24.0467 10.0171C24.0139 10.0299 23.9841 10.0495 23.9594 10.0747L23.2437 10.7934C23.2027 10.8352 23.1774 10.8899 23.1723 10.9483C23.1673 11.0066 23.1827 11.0649 23.2159 11.1131C23.4303 11.4369 23.7488 12.2101 23.1722 13.3732C22.6088 13.127 22.0007 12.9997 21.3859 12.9995C20.5108 12.9995 19.6983 13.2663 19.0001 13.7054L21.3337 14.777V17.2221H24.1178L25.8267 18.9997C25.9285 18.6053 26.0004 18.1987 26.0004 17.7712C26.001 17.1011 25.8617 16.4382 25.5913 15.8251C25.321 15.2119 24.9255 14.662 24.4304 14.2104Z" fill="white"/>
</svg>

<svg xmlns="http://www.w3.org/2000/svg" fill="none" viewBox="0 0 36 36"><path fill="#FC7D04" d="M0 8a8 8 0 0 1 8-8h20a8 8 0 0 1 8 8v20a8 8 0 0 1-8 8H8a8 8 0 0 1-8-8z"/><path fill="#fff" d="M20.334 18.222v-2.804l-1.649-.757c-1.827 2.175-2.51 7.839-6.935 7.839a1.75 1.75 0 1 0 0 3.5c6.645 0 11.583-3.84 13.1-6.573l-1.158-1.205zm4.096-4.012c1.005-1.87.482-3.383-.098-4.117a.25.25 0 0 0-.373-.018l-.715.718a.25.25 0 0 0-.028.32c.214.324.533 1.097-.044 2.26A4.5 4.5 0 0 0 21.386 13c-.875 0-1.688.266-2.386.705l2.334 1.072v2.445h2.784L25.827 19c.101-.395.173-.801.173-1.229a4.81 4.81 0 0 0-1.57-3.56"/></svg>
